!!!!SEGMENT: pl-kk--kk-i-111--006-003_anonim--deo-gratias-paschale-3tium.krn
!!!cenid: 18xx:2569
!!!COM: Anonim
!!!COM-rismID: pe30004985
!!!CDT:
!!!CNT:
!!!GTL: Deo gratias
!!!OTL: Paschale 3tium
!!!OMV: 003
!!!PDT: 1824
!!!AGN: Sacred
!!!SMS-siglum: PL-Kk
!!!SMS-shelfmark: Kk.I.111
!!!SMS-shelfwork: 006-003 G
!!!SMS-variant:
!!!SMS-altvar:
!!!NIFC-rismSourceID: 1001157683
!!!NIFC-islandoraID: pl-kk:3371
!!!URL-pdf-islandora: https://repozytorium.nifc.pl/islandora/object/pl-kk%3A3371/datastream/PDF/view
!!!URL-scan: https://polish.musicsources.pl/pl/lokalizacje/galeria/rekopisy/5747 @EN{Scan on Polish Music Sources Website} @PL{Skany w portalu Dziedzictwo Muzyki Polskiej w otwartym dostępie}
!!!ONB-nifc: UWAGA: A, T1, T2. Podział na poszególne Deo gratias. A: skan 0003 (m.in)
!!!AIN: 1 alto 2 tenor
!!!key:
**kern	**text	**kern	**text	**kern	**text
*part3	*part3	*part2	*part2	*part1	*part1
*staff3	*staff3	*staff2	*staff2	*staff1	*staff1
*Itenor	*	*Itenor	*	*Ialto	*
*I"Tenore Vagante.	*	*I"Tenore Chorale.	*	*I"Alto.	*
*I'T 2	*	*I'T 1	*	*I'A	*
*clefC4	*	*clefC4	*	*clefC3	*
*k[]	*	*k[]	*	*k[]	*
*G:	*	*G:	*	*G:	*
*M2/1	*	*M2/1	*	*M2/1	*
*met(c|)	*	*	*	*	*
=1-	=1-	=1-	=1-	=1-	=1-
!LO:TX:t=P:problem=kreska pseudotaktowa	!	!	!	!	!
!LO:TX:a:t=2	!	!	!	!	!
*	*	*met(c|)	*	*	*
!	!	!LO:TX:t=P:problem=kreska pseudotaktowa	!	!	!
*	*	*	*	*met(c|)	*
!	!	!	!	!LO:TX:a:t=3.	!
0r	.	1c	De-	0r	.
!	!	!LO:TX:t=P:problem=kreska pseudotaktowa	!	!	!
.	.	1d	.	.	.
=2-	=2-	=2	=2-	=2-	=2-
!LO:TX:t=P:problem=kreska pseudotaktowa	!	!LO:TX:t=P:problem=kreska pseudotaktowa	!	!LO:TX:t=P:problem=kreska pseudotaktowa	!
1c	De-	1c	-o	1r	.
!LO:TX:t=P:problem=2\right&colon; global	!	!LO:TX:t=P:problem=kreska pseudotaktowa	!	!LO:TX:t=P:problem=kreska pseudotaktowa	!
2d\	.	1B	.	1g	De-
!LO:TX:t=P:problem=kreska pseudotaktowa	!	!	!	!	!
2Bn\	-o	.	.	.	.
=3	=3-	=3	=3-	=3	=3-
!	!	!LO:TX:t=P:problem=kreska pseudotaktowa	!	!LO:TX:t=P:problem=kreska pseudotaktowa	!
2c\	gra-	1A	.	1a	.
!LO:TX:t=P:problem=kreska pseudotaktowa	!	!	!	!	!
2A\	.	.	.	.	.
2G/	.	0c	.	4g\	-o
.	.	.	.	4f\	.
4g\	.	.	.	4e\	.
!LO:TX:t=P:problem=kreska pseudotaktowa	!	!	!	!LO:TX:t=P:problem=kreska pseudotaktowa	!
4f\	.	.	.	4d\	.
=4	=4-	=4-	=4-	=4	=4-
!	!	!LO:TX:t=P:problem=kreska pseudotaktowa	!	!LO:TX:t=P:problem=2\right&colon; global	!
4e\	.	.	.	2c\	.
4d\	.	.	.	.	.
!LO:TX:t=P:problem=kreska pseudotaktowa	!	!	!	!LO:TX:t=P:problem=kreska pseudotaktowa	!
2c\	.	.	.	2e\	.
!	!	!LO:TX:t=P:problem=kreska pseudotaktowa	!	!	!
2.f\	.	1A	.	2.a\	gra-
8e\L	.	.	.	8g\L	.
!LO:TX:t=P:problem=kreska pseudotaktowa	!	!	!	!LO:TX:t=P:problem=kreska pseudotaktowa	!
8d\J	.	.	.	8f\J	.
=5	=5-	=5	=5-	=5	=5-
!	!	!LO:TX:t=P:problem=kreska pseudotaktowa	!	!LO:TX:t=P:problem=kreska pseudotaktowa	!
2c\	.	1c	.	1e	.
!LO:TX:t=P:problem=kreska pseudotaktowa	!	!	!	!	!
2A/	.	.	.	.	.
!	!	!LO:TX:t=P:problem=kreska pseudotaktowa	!	!	!
4B\	.	1G	.	4d\	.
4A\	.	.	.	4c\	.
4B\	.	.	.	4d\	.
!LO:TX:t=P:problem=kreska pseudotaktowa	!	!	!	!LO:TX:t=P:problem=kreska pseudotaktowa	!
4c\	.	.	.	4e\	.
=6	=6-	=6	=6-	=6	=6-
!	!	!LO:TX:t=P:problem=kreska pseudotaktowa	!	!	!
2.d\	.	1F	.	2.f\	.
8c\L	.	.	.	8e\L	.
!LO:TX:t=P:problem=kreska pseudotaktowa	!	!	!	!LO:TX:t=P:problem=kreska pseudotaktowa	!
8B\J	.	.	.	8d\J	.
!	!	!LO:TX:t=P:problem=kreska pseudotaktowa	!	!	!
2A/	.	1A	gra-	2c\	.
1A\	.	.	.	1f\	.
=7-	=7-	=7	=7-	=7-	=7-
!	!	!LO:TX:t=P:problem=kreska pseudotaktowa	!	!	!
.	.	1B	.	.	.
!LO:TX:t=P:problem=kreska pseudotaktowa	!	!	!	!LO:TX:t=P:problem=kreska pseudotaktowa	!
2G#X/	-ti-	.	.	2e\	-ti-
!LO:TX:t=P:problem=kreska pseudotaktowa	!	!LO:TX:t=P:problem=kreska pseudotaktowa	!	!LO:TX:t=P:problem=kreska pseudotaktowa	!
1A	-as	1c	.	1e	-as
=8	=8-	=8	=8-	=8	=8-
!	!	!	!	!LO:TX:t=P:problem=kreska pseudotaktowa	!
!	!	!LO:TX:t=P:problem=kreska pseudotaktowa	!	!LO:TX:a:t=1	!
2r	.	1B	.	1r	.
1e	De-	.	.	.	.
!	!	!LO:TX:t=P:problem=kreska pseudotaktowa	!	!LO:TX:t=P:problem=kreska pseudotaktowa	!
.	.	1A	.	1a	De-
!LO:TX:t=P:problem=kreska pseudotaktowa	!	!	!	!	!
2A/	-o	.	.	.	.
=9	=9-	=9	=9-	=9	=9-
!	!	!LO:TX:t=P:problem=kreska pseudotaktowa	!	!	!
2B\	gra-	1G	.	2d\	-o
!LO:TX:t=P:problem=kreska pseudotaktowa	!	!	!	!LO:TX:t=P:problem=kreska pseudotaktowa	!
2c#X\	.	.	.	2g\	.
!	!	!LO:TX:t=P:problem=kreska pseudotaktowa	!	!	!
2d\	.	1A	.	2f#X\	gra-
!LO:TX:t=P:problem=kreska pseudotaktowa	!	!	!	!LO:TX:t=P:problem=kreska pseudotaktowa	!
2e\	.	.	.	2g\	.
!LO:LB:g=original	!	!	!	!	!
=10	=10-	=10	=10-	=10	=10-
!LO:TX:t=P:problem=kreska pseudotaktowa	!	!LO:TX:t=P:problem=kreska pseudotaktowa	!	!LO:TX:t=P:problem=kreska pseudotaktowa	!
1A	.	1F#X	.	1d	.
2B\	.	0G	.	2d\	.
1c\	.	.	.	1e\	.
=11-	=11-	=11-	=11-	=11-	=11-
!	!	!LO:TX:t=P:problem=kreska pseudotaktowa	!	!	!
.	.	.	.	.	.
!LO:TX:t=P:problem=kreska pseudotaktowa	!	!	!	!LO:TX:t=P:problem=kreska pseudotaktowa	!
2G/	.	.	.	2d\	.
!	!	!LO:TX:t=P:problem=kreska pseudotaktowa	!	!	!
2.c\	.	1G	-ti-	2.e\	.
!LO:TX:t=P:problem=kreska pseudotaktowa	!	!	!	!LO:TX:t=P:problem=kreska pseudotaktowa	!
4c\	-ti-	.	.	4e\	-ti-
=12	=12-	=12	=12-	=12	=12-
0B;	-as.	0G;	-as.	0d;	-as.
==	=-	==	=-	==	=-
*-	*-	*-	*-	*-	*-
!!!system-decoration: [(s1,s2,s3)]
!!!ENC: Kamil Watkowski
!!!END: 2021-08-04
